static/assets/images/exchanges/pangolin.svg

<svg width="282" height="256" viewBox="0 0 282 256" fill="none" xmlns="http://www.w3.org/2000/svg">
<path d="M147.473 41.8912L205.015 0.0495825L214.727 29.8429L147.473 78.7673V41.8861V41.8912Z" fill="#FFC800"/>
<path d="M157.956 86.8057L229.629 34.6675L218.342 0.0304635L256.236 0L282 79.0579L214.746 127.972L157.956 86.8057ZM147.441 94.8176L214.578 143.519L147.471 192.864L147.441 94.8176ZM147.486 208.533L202.219 168.717L214.725 207.076L147.471 256L147.486 208.533Z" fill="#FFC800"/>
<path d="M134.53 41.8912L76.9877 0.0495825L67.2703 29.8429L134.53 78.7673V41.8861V41.8912Z" fill="#FFC800"/>
<path d="M124.045 86.8057L52.3557 34.6675L63.6427 0.0304635L25.7588 0L0 79.0579L67.2543 127.972L124.045 86.8057ZM134.559 94.8176L67.4067 143.519L134.529 192.864L134.559 94.8176ZM134.514 208.533L79.7654 168.717L67.2695 207.076L134.529 256L134.514 208.533Z" fill="#FFC800"/>
</svg>

<svg xmlns="http://www.w3.org/2000/svg" fill="none" viewBox="0 0 282 256"><path fill="#FFC800" d="M147.473 41.891 205.015.05l9.712 29.793-67.254 48.924v-36.88z"/><path fill="#FFC800" d="m157.956 86.806 71.673-52.138L218.342.03 256.236 0 282 79.058l-67.254 48.914zm-10.515 8.012 67.137 48.701-67.107 49.345zm.045 113.715 54.733-39.816 12.506 38.359L147.471 256zM134.53 41.891 76.988.05 67.27 29.843l67.26 48.924v-36.88z"/><path fill="#FFC800" d="m124.045 86.806-71.69-52.138L63.644.03 25.759 0 0 79.058l67.254 48.914zm10.514 8.012-67.152 48.701 67.122 49.345zm-.045 113.715-54.749-39.816-12.496 38.359L134.53 256z"/></svg>
